%
(Header)
(Generated by gcodetools from Inkscape.)
(Using default header. To add your own header create file "header" in the output dir.)
M3
(Header end.)
G21 (All units in mm)

(Start cutting path id: rect4978)
(Change tool to Default tool)

G00 Z 5.0000
G00 X 29.8027 Y 270.7148

G01 Z -0.1250 F 100.0000(Penetrate)
G01 X 29.8027 Y 270.5828 Z -0.1250 F 400.0000
G01 X 29.8027 Y 20.7148 Z -0.1250
G01 X 379.8027 Y 20.7148 Z -0.1250
G01 X 379.8027 Y 270.7148 Z -0.1250
G01 X 29.8027 Y 270.7148 Z -0.1250
G00 Z 5.0000

(End cutting path id: rect4978)


(Start cutting path id: rect4978)
(Change tool to Default tool)

G00 Z 5.0000
G00 X 30.0550 Y 270.4508

G01 Z -0.1250 F 100.0000(Penetrate)
G01 X 379.5486 Y 270.4508 Z -0.1250 F 400.0000
G01 X 379.5486 Y 20.9769 Z -0.1250
G01 X 30.0550 Y 20.9769 Z -0.1250
G01 X 30.0550 Y 270.4508 Z -0.1250
G00 Z 5.0000

(End cutting path id: rect4978)



(Footer)
M5
G00 X0.0000 Y0.0000
M2
(Using default footer. To add your own footer create file "footer" in the output dir.)
(end)
%